app/images/icons/van.svg

<svg width="25" height="20" viewBox="0 0 25 20" fill="none" xmlns="http://www.w3.org/2000/svg">
<path fill-rule="evenodd" clip-rule="evenodd" d="M23.75 13.75H24.375C24.7188 13.75 25 14.0312 25 14.375V15.625C25 15.9688 24.7188 16.25 24.375 16.25H22.5C22.5 18.3203 20.8203 20 18.75 20C16.6797 20 15 18.3203 15 16.25H10C10 18.3203 8.32031 20 6.25 20C4.17969 20 2.5 18.3203 2.5 16.25H1.875C0.839844 16.25 0 15.4102 0 14.375V1.875C0 0.839844 0.839844 0 1.875 0H14.375C15.4102 0 16.25 0.839844 16.25 1.875V3.75H17.9727C18.4688 3.75 18.9453 3.94922 19.2969 4.30078L23.1992 8.20312C23.5508 8.55469 23.75 9.03125 23.75 9.52734V13.75ZM4.375 16.25C4.375 17.2852 5.21484 18.125 6.25 18.125C7.28516 18.125 8.125 17.2852 8.125 16.25C8.125 15.2148 7.28516 14.375 6.25 14.375C5.21484 14.375 4.375 15.2148 4.375 16.25ZM18.75 18.125C17.7148 18.125 16.875 17.2852 16.875 16.25C16.875 15.2148 17.7148 14.375 18.75 14.375C19.7852 14.375 20.625 15.2148 20.625 16.25C20.625 17.2852 19.7852 18.125 18.75 18.125ZM16.25 10H21.875V9.52734L17.9727 5.625H16.25V10Z" fill="#262626"/>
</svg>

<svg width="25" height="20" fill="none" xmlns="http://www.w3.org/2000/svg"><path fill-rule="evenodd" clip-rule="evenodd" d="M23.75 13.75h.625c.344 0 .625.281.625.625v1.25a.627.627 0 01-.625.625H22.5a3.751 3.751 0 01-7.5 0h-5a3.751 3.751 0 01-7.5 0h-.625A1.875 1.875 0 010 14.375v-12.5C0 .84.84 0 1.875 0h12.5c1.035 0 1.875.84 1.875 1.875V3.75h1.723c.496 0 .972.2 1.324.55l3.902 3.903c.352.352.551.828.551 1.324v4.223zm-19.375 2.5a1.875 1.875 0 103.75 0 1.875 1.875 0 00-3.75 0zm14.375 1.875a1.875 1.875 0 110-3.75 1.875 1.875 0 010 3.75zM16.25 10h5.625v-.473l-3.902-3.902H16.25V10z" fill="#262626"/></svg>
